X: 10
T:Richardly Quickstep,The. Car.10
T:Davy Davy Nick Nack,aka. Car.10
M:2/4
L:1/16
Q:110
C:Davy Davy Nick Nack,aka
S:CarlisleMS,Anon.c1812.AGG's transcription
O:England
A:Carlisle
Z:vmp.Chris Partington
K:Bb
{c}BABc d2d2|{c}BABc d2d2|fede c2c2|fede c2c2|!
{c}BABc d2d2|{c}BABc d2d2|egfe dcBA|B2B2 B4:|!
|:f2f2 d2d2|b2b2 f4|fede c2c2|fede c2c2|!
{g}f2=ef d2d2|b2b2 f4|egfe dcBA|B2B2 B4:|]
